X:1
T:Fado Corrido.
T:Fado Corrido.
T:in "Cantos Populares - 12 Fados para Piano"
T:Editor: Eduardo da Fonseca - Porto [ca. 1900]
%%score { 1 | 2 }
L:1/8
Q:1/4=60
M:2/4
K:Ab
V:1 treble nm="Piano" snm="Pno."
V:2 bass 
V:1
"^Andante" c | F/A/c/f/- f/d/c/B/ | G/B/c/=e/- e/d/c/B/ | G/B/c/=e/- e/d/c/B/ | A/A/c/f/- fc | %5
 F/A/c/f/- f/d/c/B/ | G/B/c/=e/- e/d/c/B/ | d/c/B/A/ G/B/G/=E/ | F/.f/.f/.f/ !//!.f2 | %9
 f/c/{/e}d/c/ B/A/G/F/ | G/.=e/.e/.e/ !//!.e2 | =e/c/{/_e}d/c/ B/A/G/B/ | F/.f/.f/.f/ !//!.f2 | %13
 f/c/{/e}d/c/ B/A/G/F/ | c=E/G/ c/c/B/d/ | c/c/A/F/ G/G/=E/G/ | F2 z c ||[K:F] f/f/c/c/ f/f/c/c/ | %18
 e/e/c/c/ e/e/c/c/ | e/e/c/c/ e/e/c/c/ | f/f/c/c/ f/f/c/c/ | f/f/c/c/ f/f/c/c/ | %22
 e/e/c/c/ e/e/c/c/ | e/e/c/c/ e/e/c/c/ | f/f/c/c/ f/f/c/c/ | g/g/f/f/ e/e/d/d/ | %26
 e/e/c/c/ d/d/B/B/ | c/c/A/A/ B/B/G/G/ | F2 z |] %29
V:2
 z | F,[A,CF] [A,CF][A,CF] | C,[B,C=E] [B,CE][B,CE] | C,[B,C=E] [B,CE][B,CE] | %4
 F,[A,CF] [A,CF][A,CF] | F,[A,CF] [A,CF][A,CF] | C,[B,C=E] [B,CE][B,CE] | C,[B,C=E] [B,CE][B,CE] | %8
 F,[A,CF] [A,CF][A,CF] | F,[A,CF] [A,CF][A,CF] | C,[B,C=E] [B,CE][B,CE] | C,[B,C=E] [B,CE][B,CE] | %12
 F,[A,CF] [A,CF][A,CF] | F,[A,CF] [A,CF][A,CF] | C,[B,C=E] [B,CE][B,CE] | C,[B,C=E] [B,CE][B,CE] | %16
 F,[A,CF] [A,CF][A,CF] ||[K:F] F,[A,CF] [A,CF][A,CF] | C,[B,CE] [B,CE][B,CE] | %19
 C,[B,CE] [B,CE][B,CE] | F,[A,CF] [A,CF][A,CF] | F,[A,CF] [A,CF][A,CF] | C,[B,CE] [B,CE][B,CE] | %23
 C,[B,CE] [B,CE][B,CE] | F,[A,CF] [A,CF][A,CF] | F,[A,CF] [A,CF][A,CF] | C,[B,CE] [B,CE][B,CE] | %27
 C,[B,CE] [B,CE][B,CE] | F,[A,CF] [A,CF] |] %29

